X:141
T: DE KUCKUK UP DEN TUNE SAT
N: Z0140
O: Europa, Mitteleuropa, Deutschland, Westfalen
R: Erzaehlung, lustige Romanze
M: 2/4
L: 1/16
K: Bb
d2 | c2B2A2B2 | c4d4 | B4z2
d2 | c2B2A2B2 | c4d4 | B4z2
F2 | BBc2d2e2 | f2f=ef4 | f2g=ef2
d2 | ccB2A2B2 | c4d4 | B4z2

@@@ Tune index: 9899
